icons/charmed.svg

<svg id="icon" style="touch-action: none;" clip-rule="evenodd" fill-rule="evenodd" stroke-linejoin="round" stroke-miterlimit="2" viewBox="0 0 500 500" xmlns="http://www.w3.org/2000/svg" xmlns:xlink="http://www.w3.org/1999/xlink"><clipPath id="a"><path clip-rule="evenodd" d="m0 0h17v23h-17z"/></clipPath><g clip-path="url(#a)" transform="matrix(21.7391 0 0 21.7391 65.21765 .00035)"><path d="m12.193 5.425-.053.103.007.005c.086-.208.205-.388.348-.53.455-.451 1.221-.644 1.884-.358.664-.286 1.429-.093 1.884.358.529.524.719 1.563.195 2.611-.263.548-.879 1.12-1.439 1.505.374.946.581 1.988.581 3.081v.2h.1c.6.2.8 1.1.5 2.1s-.9 1.6-1.5 1.5c-.2.4-.4.8-.7 1.1-.5 2.8-2.8 5.8-5.6 5.8s-5.1-2.9-5.6-5.8c-.3-.3-.5-.7-.7-1.1-.6.1-1.3-.5-1.6-1.5s-.1-1.9.5-2.1h.2v-.2c0-1.085.204-2.119.572-3.058-.568-.386-1.203-.969-1.472-1.528-.523-1.048-.334-2.087.195-2.611.455-.451 1.221-.644 1.884-.358.664-.286 1.429-.093 1.884.358.149.147.271.335.357.552l.073-.048.005-.031-.027-.055.013.025-.009-.018c-.958-1.832-.76-3.657.205-4.573.859-.815 2.396-1.042 3.553-.195 1.157-.847 2.695-.62 3.553.195.965.915 1.163 2.739.207 4.57zm-.993 9.675h-1.7c0 .6-.1 1-.2 1.2s-.4.3-.8.3-.7-.1-.9-.4-.3-.7-.3-1.3v-2.6c0-.6.1-1 .3-1.3s.5-.4.9-.4.8.2.9.4.2.6.2 1.2h1.6c0-1-.2-1.7-.7-2.2s-1.2-.7-2.1-.7c-.8 0-1.5.3-2 .8s-.8 1.3-.8 2.3v2.5c0 1 .2 1.8.8 2.3s1.4.8 2.2.8 1.4-.2 1.9-.7.7-1.2.7-2.2zm-8.821-9.144c.295-.535.886-.535 1.181-.242.295.292.295.877 0 1.461-.207.439-.738.877-1.181 1.17-.442-.293-.974-.731-1.18-1.17-.295-.584-.295-1.169 0-1.461.295-.293.885-.293 1.18.242zm12 0c.295-.535.886-.535 1.181-.242.295.292.295.877 0 1.461-.207.439-.738.877-1.181 1.17-.442-.293-.974-.731-1.18-1.17-.295-.584-.295-1.169 0-1.461.295-.293.885-.293 1.18.242zm-5.946-3.812c.716-1.244 2.149-1.244 2.865-.564s.716 2.04 0 3.4c-.502 1.02-1.791 2.04-2.865 2.72-1.074-.68-2.363-1.7-2.865-2.72-.716-1.36-.716-2.72 0-3.4.717-.68 2.149-.68 2.865.564zm3.75 3.302.012-.025z" fill="#ffafe7"/></g></svg>

<?xml version="1.0" encoding="UTF-8" standalone="no"?>
<!DOCTYPE svg PUBLIC "-//W3C//DTD SVG 1.1//EN" "http://www.w3.org/Graphics/SVG/1.1/DTD/svg11.dtd">
<svg width="100%" height="100%" viewBox="0 0 500 500" version="1.1" xmlns="http://www.w3.org/2000/svg" xmlns:xlink="http://www.w3.org/1999/xlink" xml:space="preserve" xmlns:serif="http://www.serif.com/" style="fill-rule:evenodd;clip-rule:evenodd;stroke-linejoin:round;stroke-miterlimit:2;">
    <g transform="matrix(21.7391,0,0,21.7391,250,250)">
        <g transform="matrix(1,0,0,1,-8.5,-11.5)">
            <clipPath id="_clip1">
                <rect x="0" y="0" width="17" height="23"/>
            </clipPath>
            <g clip-path="url(#_clip1)">
                <path d="M12.193,5.425L12.14,5.528L12.147,5.533C12.233,5.325 12.352,5.145 12.495,5.003C12.95,4.552 13.716,4.359 14.379,4.645C15.043,4.359 15.808,4.552 16.263,5.003C16.792,5.527 16.982,6.566 16.458,7.614C16.195,8.162 15.579,8.734 15.019,9.119C15.393,10.065 15.6,11.107 15.6,12.2L15.6,12.4L15.7,12.4C16.3,12.6 16.5,13.5 16.2,14.5C15.9,15.5 15.3,16.1 14.7,16C14.5,16.4 14.3,16.8 14,17.1C13.5,19.9 11.2,22.9 8.4,22.9C5.6,22.9 3.3,20 2.8,17.1C2.5,16.8 2.3,16.4 2.1,16C1.5,16.1 0.8,15.5 0.5,14.5C0.2,13.5 0.4,12.6 1,12.4L1.2,12.4L1.2,12.2C1.2,11.115 1.404,10.081 1.772,9.142C1.204,8.756 0.569,8.173 0.3,7.614C-0.223,6.566 -0.034,5.527 0.495,5.003C0.95,4.552 1.716,4.359 2.379,4.645C3.043,4.359 3.808,4.552 4.263,5.003C4.412,5.15 4.534,5.338 4.62,5.555L4.693,5.507L4.698,5.476L4.671,5.421L4.684,5.446L4.675,5.428C3.717,3.596 3.915,1.771 4.88,0.855C5.739,0.04 7.276,-0.187 8.433,0.66C9.59,-0.187 11.128,0.04 11.986,0.855C12.951,1.77 13.149,3.594 12.193,5.425ZM11.2,15.1L9.5,15.1C9.5,15.7 9.4,16.1 9.3,16.3C9.2,16.5 8.9,16.6 8.5,16.6C8.1,16.6 7.8,16.5 7.6,16.2C7.4,15.9 7.3,15.5 7.3,14.9L7.3,12.3C7.3,11.7 7.4,11.3 7.6,11C7.8,10.7 8.1,10.6 8.5,10.6C8.9,10.6 9.3,10.8 9.4,11C9.5,11.2 9.6,11.6 9.6,12.2L11.2,12.2C11.2,11.2 11,10.5 10.5,10C10,9.5 9.3,9.3 8.4,9.3C7.6,9.3 6.9,9.6 6.4,10.1C5.9,10.6 5.6,11.4 5.6,12.4L5.6,14.9C5.6,15.9 5.8,16.7 6.4,17.2C7,17.7 7.8,18 8.6,18C9.4,18 10,17.8 10.5,17.3C11,16.8 11.2,16.1 11.2,15.1ZM2.379,5.956C2.674,5.421 3.265,5.421 3.56,5.714C3.855,6.006 3.855,6.591 3.56,7.175C3.353,7.614 2.822,8.052 2.379,8.345C1.937,8.052 1.405,7.614 1.199,7.175C0.904,6.591 0.904,6.006 1.199,5.714C1.494,5.421 2.084,5.421 2.379,5.956ZM14.379,5.956C14.674,5.421 15.265,5.421 15.56,5.714C15.855,6.006 15.855,6.591 15.56,7.175C15.353,7.614 14.822,8.052 14.379,8.345C13.937,8.052 13.405,7.614 13.199,7.175C12.904,6.591 12.904,6.006 13.199,5.714C13.494,5.421 14.084,5.421 14.379,5.956ZM8.433,2.144C9.149,0.9 10.582,0.9 11.298,1.58C12.014,2.26 12.014,3.62 11.298,4.98C10.796,6 9.507,7.02 8.433,7.7C7.359,7.02 6.07,6 5.568,4.98C4.852,3.62 4.852,2.26 5.568,1.58C6.285,0.9 7.717,0.9 8.433,2.144ZM12.183,5.446L12.195,5.421L12.183,5.446Z" style="fill:rgb(255,175,231);"/>
            </g>
        </g>
    </g>
</svg>
